X:89
T:score177
L:1/8
Q:1/4=96
M:4/4
I:linebreak $
K:C
 E2 ^F>^G A2 B2 | c>B (3(BA^G) A2 z3/2 A/ | A2 d z/A/ A2 f z/f/ |$ (e3- e/4^d/4e/4f/4) e2 z3/2 A/ | %4
 (B3 c) A z/e/ (3(ed)c | (!turn!B3 c) A z/A/ B>c |$ e4 d z d2 | (d2 e)f (3(fed) (3(dcB) | %8
 c2- c z (3z Bc (3(dc)B |$ (c>B) A z/(^G/4A/4) c3 B | A2 z2 z4 |] %11
